packages/ui-icons/svg/Line/add-folder.svg

<svg viewBox="0 0 1920 1920" version="1.1" xmlns="http://www.w3.org/2000/svg">
    <path d="M764.385882,112.941176 L990.268235,451.764706 L1920,451.764706 L1920,1637.64706 C1920,1725.86039 1852.20148,1798.55965 1765.9842,1806.36508 L1750.58824,1807.05882 L169.411765,1807.05882 C81.1984314,1807.05882 8.49917211,1739.26031 0.693740014,1653.04302 L0,1637.64706 L0,112.941176 L764.385882,112.941176 Z M703.849412,225.882353 L112.941176,225.882353 L112.941176,1637.64706 C112.941176,1665.35529 133.019608,1688.42318 159.295086,1693.2073 L169.411765,1694.11765 L1750.58824,1694.11765 C1778.19608,1694.11765 1801.34205,1674.12845 1806.14476,1647.79348 L1807.05882,1637.64706 L1807.05882,564.705882 L225.882353,564.705882 L225.882353,451.764706 L854.4,451.764706 L703.849412,225.882353 Z M1016.47059,790.588235 L1016.47059,1072.94118 L1298.82353,1072.94118 L1298.82353,1185.88235 L1016.47059,1185.88235 L1016.47059,1468.23529 L903.529412,1468.23529 L903.529412,1185.88235 L621.176471,1185.88235 L621.176471,1072.94118 L903.529412,1072.94118 L903.529412,790.588235 L1016.47059,790.588235 Z" stroke="none" stroke-width="1" fill-rule="evenodd"/>
</svg>

<svg viewBox="0 0 1920 1920" xmlns="http://www.w3.org/2000/svg">
    <path d="m764.386 112.941 225.882 338.824H1920v1185.882c0 88.213-67.799 160.913-154.016 168.718l-15.396.694H169.412c-88.214 0-160.913-67.799-168.718-154.016L0 1637.647V112.941h764.386Zm-60.537 112.941H112.941v1411.765c0 27.708 20.079 50.776 46.354 55.56l10.117.91h1581.176c27.608 0 50.754-19.989 55.557-46.324l.914-10.146V564.706H225.882V451.765H854.4L703.85 225.882Zm312.622 564.706v282.353h282.353v112.941H1016.47v282.353H903.529v-282.353H621.176v-112.94H903.53V790.587h112.942Z" fill-rule="evenodd"/>
</svg>
